X: 18
T:Huntsman's Chorus
% Nottingham Music Database
S:Kevin Briggs, via EF
M:4/4
L:1/4
K:G
D|"G"GD G/2A/2B/2c/2|"G"d2 "Em"B2|"D7"Ad Ad|"G"B/2c/2B/2A/2 "D7"GD|\
"G"GD G/2A/2B/2c/2|"G7/f"d2 "C/e"c2|"G/d"B/2A/2G/2A/2 "D7"BA|"G"G3:||:
G/2A/2|"G"B3/2B/2 "B7"BA|"Em"G2 G2|"Am"c3/2c/2 cB|"D7"AF ED|\
"G"B3/2A/2 G/2A/2B/2c/2|"G7/f"d2 "C/e"c2|"G/d"B/2A/2G/2A/2 "D7"BA|"G"G3:|


